src/images/medium-icon.svg

<svg height="24" width="25" xmlns="http://www.w3.org/2000/svg" xmlns:xlink="http://www.w3.org/1999/xlink"><mask id="a" fill="#fff"><path d="m0 0h24v24h-24z" fill="#fff" fill-rule="evenodd"/></mask><path d="m19.938 5.686-1.287 1.234a.376.376 0 0 0 -.143.362v9.067a.376.376 0 0 0 .143.361l1.257 1.234v.271h-6.322v-.27l1.302-1.265c.128-.128.128-.165.128-.36v-7.33l-3.62 9.195h-.49l-4.215-9.195v6.163a.85.85 0 0 0 .233.707l1.694 2.054v.271h-4.803v-.27l1.695-2.055a.82.82 0 0 0 .218-.707v-7.126a.625.625 0 0 0 -.203-.527l-1.505-1.814v-.27h4.674l3.613 7.923 3.176-7.924h4.456v.271zm-19.938 18.314h24v-24h-24z" fill="#fff" fill-rule="evenodd" mask="url(#a)" transform="translate(.8)"/></svg>

<svg width="25" height="24" xmlns="http://www.w3.org/2000/svg" xmlns:xlink="http://www.w3.org/1999/xlink"><defs><path id="a" d="M0 0h24v24H0z"/></defs><g transform="translate(.8)" fill="none" fill-rule="evenodd"><mask id="b" fill="#fff"><use xlink:href="#a"/></mask><path d="M19.938 5.686L18.651 6.92a.376.376 0 0 0-.143.362v9.067a.376.376 0 0 0 .143.361l1.257 1.234v.271h-6.322v-.27l1.302-1.265c.128-.128.128-.165.128-.36V8.99l-3.62 9.195h-.49L6.691 8.99v6.163a.85.85 0 0 0 .233.707l1.694 2.054v.271H3.815v-.27L5.51 15.86a.82.82 0 0 0 .218-.707V8.027a.625.625 0 0 0-.203-.527L4.02 5.686v-.27h4.674l3.613 7.923 3.176-7.924h4.456v.271zM0 24h24V0H0v24z" fill="#FFF" mask="url(#b)"/></g></svg>
